X:408
T:Rambling Sailor
M:4/4
L:1/8
K:DMix
D2 A2 AFGE|D2 D2 c3 d|cABG A2 GE|D4 D4:|
ABcA d2 d2|ABcA d3 d|c2 c2 B2 B2|ABAG E2 E2|
D2 A2 AFGE|D2 D2 c3 d|cABG A2 GE|D4 D4||
